X:46
T:A Tradition's Echo
T:A Stimpy Thump
R:Gig
C:copyright (c) 2001 R. S. Doiel, all rights reserved
M:6/8
L:1/8
Q:1/4=60
K:G
(3ddd gd bd | gd bd gd | bb ag f2 | dd dg db |
dg db da | gf  dc (3GGG | dd dg db | dg db dg |
db ba gf | dd dg db | dg db da | gf  dc (3GGG ||
(3DEG AB D/E/G/A/  | d2 (3DEG B2 | GG FE D2 | D/E/G/A/ B2 (3DEG |
d2 (3DEG B2 | (3ded cA G2  | (3DEG AB D/E/G/A/ | d2 (3DEG B2 |
GG FE D2 | D/E/G/A/ B2 (3DEG | d2 (3DEG Ba | gf dc (3GGG ||
K:C
(3DEF BF dF | BF dF Bd | cB D4 | (3DEF BF dF | 
BF dF BD | EF G4 | (3DEF BF dF | BF dF Bd |
cB D4 | (3DEF BF dF | BF dF Ba | g^f dc (3GGG |]



% Fishuthes
